public/img/weather_icon/thunderstorm.svg

<?xml version="1.0" encoding="utf-8"?>
<!-- Generator: Adobe Illustrator 15.1.0, SVG Export Plug-In . SVG Version: 6.00 Build 0)  -->
<!DOCTYPE svg PUBLIC "-//W3C//DTD SVG 1.1//EN" "http://www.w3.org/Graphics/SVG/1.1/DTD/svg11.dtd">
<svg version="1.1" id="Layer_1" xmlns="http://www.w3.org/2000/svg" xmlns:xlink="http://www.w3.org/1999/xlink" x="0px" y="0px"
	 width="512px" height="512px" viewBox="0 0 512 512" enable-background="new 0 0 512 512" xml:space="preserve">
<g id="Grid_1_">
	<g id="Layer_1_1_">
		<g id="Grid">
			<g>
				<rect fill="none" stroke="#A9CCDB" stroke-miterlimit="10" width="512" height="512"/>
				<line fill="none" stroke="#A9CCDB" stroke-miterlimit="10" x1="0" y1="480" x2="512" y2="480"/>
				<line fill="none" stroke="#A9CCDB" stroke-miterlimit="10" x1="0" y1="448" x2="512" y2="448"/>
				<line fill="none" stroke="#A9CCDB" stroke-miterlimit="10" x1="0" y1="416" x2="512" y2="416"/>
				<line fill="none" stroke="#A9CCDB" stroke-miterlimit="10" x1="0" y1="384" x2="512" y2="384"/>
				<line fill="none" stroke="#A9CCDB" stroke-miterlimit="10" x1="0" y1="352" x2="512" y2="352"/>
				<line fill="none" stroke="#A9CCDB" stroke-miterlimit="10" x1="0" y1="320" x2="512" y2="320"/>
				<line fill="none" stroke="#A9CCDB" stroke-miterlimit="10" x1="0" y1="288" x2="512" y2="288"/>
				<line fill="none" stroke="#A9CCDB" stroke-miterlimit="10" x1="0" y1="256" x2="512" y2="256"/>
				<line fill="none" stroke="#A9CCDB" stroke-miterlimit="10" x1="0" y1="224" x2="512" y2="224"/>
				<line fill="none" stroke="#A9CCDB" stroke-miterlimit="10" x1="0" y1="192" x2="512" y2="192"/>
				<line fill="none" stroke="#A9CCDB" stroke-miterlimit="10" x1="0" y1="160" x2="512" y2="160"/>
				<line fill="none" stroke="#A9CCDB" stroke-miterlimit="10" x1="0" y1="128" x2="512" y2="128"/>
				<line fill="none" stroke="#A9CCDB" stroke-miterlimit="10" x1="0" y1="96" x2="512" y2="96"/>
				<line fill="none" stroke="#A9CCDB" stroke-miterlimit="10" x1="0" y1="64" x2="512" y2="64"/>
				<line fill="none" stroke="#A9CCDB" stroke-miterlimit="10" x1="0" y1="32" x2="512" y2="32"/>
				<line fill="none" stroke="#A9CCDB" stroke-miterlimit="10" x1="480" y1="0" x2="480" y2="512"/>
				<line fill="none" stroke="#A9CCDB" stroke-miterlimit="10" x1="448" y1="0" x2="448" y2="512"/>
				<line fill="none" stroke="#A9CCDB" stroke-miterlimit="10" x1="416" y1="0" x2="416" y2="512"/>
				<line fill="none" stroke="#A9CCDB" stroke-miterlimit="10" x1="384" y1="0" x2="384" y2="512"/>
				<line fill="none" stroke="#A9CCDB" stroke-miterlimit="10" x1="352" y1="0" x2="352" y2="512"/>
				<line fill="none" stroke="#A9CCDB" stroke-miterlimit="10" x1="320" y1="0" x2="320" y2="512"/>
				<line fill="none" stroke="#A9CCDB" stroke-miterlimit="10" x1="288" y1="0" x2="288" y2="512"/>
				<line fill="none" stroke="#A9CCDB" stroke-miterlimit="10" x1="256" y1="0" x2="256" y2="512"/>
				<line fill="none" stroke="#A9CCDB" stroke-miterlimit="10" x1="224" y1="0" x2="224" y2="512"/>
				<line fill="none" stroke="#A9CCDB" stroke-miterlimit="10" x1="192" y1="0" x2="192" y2="512"/>
				<line fill="none" stroke="#A9CCDB" stroke-miterlimit="10" x1="160" y1="0" x2="160" y2="512"/>
				<line fill="none" stroke="#A9CCDB" stroke-miterlimit="10" x1="128" y1="0" x2="128" y2="512"/>
				<line fill="none" stroke="#A9CCDB" stroke-miterlimit="10" x1="96" y1="0" x2="96" y2="512"/>
				<line fill="none" stroke="#A9CCDB" stroke-miterlimit="10" x1="64" y1="0" x2="64" y2="512"/>
				<line fill="none" stroke="#A9CCDB" stroke-miterlimit="10" x1="32" y1="0" x2="32" y2="512"/>
			</g>
		</g>
	</g>
</g>
<g>
	<g>
		<path fill="#1D1D1B" d="M192,384l32,32l-32,96l96-96l-32-32l32-64L192,384z M512,134.833c0-49.146-40-89.124-89.167-89.124
			c-2.396,0-4.771,0.083-7.146,0.27C392.562,17.146,357.709,0,320,0c-37.688,0-72.562,17.146-95.688,45.979
			c-2.375-0.187-4.771-0.27-7.188-0.27C168,45.709,128,85.688,128,134.833c0,5.146,0.688,10.125,1.5,15.042
			c-0.542,0.708-1.188,1.354-1.708,2.083c-5.229-0.75-10.479-1.125-15.792-1.125c-61.75,0-112,50.25-112,112
			c0,61.751,50.25,112,112,112c13.688,0,27.084-2.499,39.709-7.333c1.104,0.959,2.416,1.625,3.541,2.562l28.312-18.875
			c-9.438-6.688-18.25-14.125-25.625-23c-13,9.146-28.812,14.646-45.938,14.646c-44.188,0-80-35.791-80-80c0-44.167,35.812-80,80-80
			c10.812,0,21.062,2.209,30.438,6.083c0.562-1.083,1.25-2,1.812-3.042c5.625-10.271,12.562-19.667,20.666-28.042
			c23.084-23.896,55.167-39,91.084-39c49.709,0,92.334,28.667,113.541,70.083c5.646-2.333,11.668-3.833,17.875-4.833l12.584-1.25
			c12.334,0,23.875,3.042,34.312,8c11.312,5.417,21.021,13.375,28.646,23.208c10.5,13.521,17.042,30.334,17.042,48.792
			c0,44.209-35.812,80-80,80c-17.125,0-32.916-5.5-45.938-14.646c-14,16.875-32.438,29.562-53.146,37.562l-5.979,11.938l18.25,18.25
			c17.062-6.646,33.021-16.188,47.104-28.438c12.625,4.834,26.021,7.333,39.709,7.333c61.75,0,112-50.249,112-112
			c0-25.666-9.042-49.083-23.666-68C502.916,178.958,512,158.021,512,134.833z M465.562,172.458
			c-18.479-13.438-41-21.625-65.562-21.625c-5.312,0-10.562,0.375-15.792,1.125C354.334,111.271,307.188,86.833,256,86.833
			c-34.125,0-66.312,11.062-92.938,30.354c7.479-22.853,28.729-39.478,54.062-39.478c7.75,0,15.062,1.562,21.75,4.333
			C254.062,52.458,284.5,32,320,32s65.958,20.458,81.084,50.042c6.729-2.771,14.083-4.333,21.749-4.333
			c31.584,0,57.167,25.583,57.167,57.124C480,149.333,474.438,162.396,465.562,172.458z"/>
	</g>
</g>
</svg>

<?xml version="1.0" encoding="UTF-8" standalone="no"?>
<svg width="512px" height="512px" viewBox="0 0 512 512" version="1.1" xmlns="http://www.w3.org/2000/svg" xmlns:xlink="http://www.w3.org/1999/xlink" xmlns:sketch="http://www.bohemiancoding.com/sketch/ns">
    <!-- Generator: Sketch 3.3.2 (12043) - http://www.bohemiancoding.com/sketch -->
    <title>Shape</title>
    <desc>Created with Sketch.</desc>
    <defs></defs>
    <g id="Page-1" stroke="none" stroke-width="1" fill="none" fill-rule="evenodd" sketch:type="MSPage">
        <g id="thunderstorm" sketch:type="MSLayerGroup" fill="#FFFFFF">
            <path d="M192,384 L224,416 L192,512 L288,416 L256,384 L288,320 L192,384 L192,384 Z M512,134.833 C512,85.687 472,45.709 422.833,45.709 C420.437,45.709 418.062,45.792 415.687,45.979 C392.562,17.146 357.709,0 320,0 C282.312,0 247.438,17.146 224.312,45.979 C221.937,45.792 219.541,45.709 217.124,45.709 C168,45.709 128,85.688 128,134.833 C128,139.979 128.688,144.958 129.5,149.875 C128.958,150.583 128.312,151.229 127.792,151.958 C122.563,151.208 117.313,150.833 112,150.833 C50.25,150.833 0,201.083 0,262.833 C0,324.584 50.25,374.833 112,374.833 C125.688,374.833 139.084,372.334 151.709,367.5 C152.813,368.459 154.125,369.125 155.25,370.062 L183.562,351.187 C174.124,344.499 165.312,337.062 157.937,328.187 C144.937,337.333 129.125,342.833 111.999,342.833 C67.811,342.833 31.999,307.042 31.999,262.833 C31.999,218.666 67.811,182.833 111.999,182.833 C122.811,182.833 133.061,185.042 142.437,188.916 C142.999,187.833 143.687,186.916 144.249,185.874 C149.874,175.603 156.811,166.207 164.915,157.832 C187.999,133.936 220.082,118.832 255.999,118.832 C305.708,118.832 348.333,147.499 369.54,188.915 C375.186,186.582 381.208,185.082 387.415,184.082 L399.999,182.832 C412.333,182.832 423.874,185.874 434.311,190.832 C445.623,196.249 455.332,204.207 462.957,214.04 C473.457,227.561 479.999,244.374 479.999,262.832 C479.999,307.041 444.187,342.832 399.999,342.832 C382.874,342.832 367.083,337.332 354.061,328.186 C340.061,345.061 321.623,357.748 300.915,365.748 L294.936,377.686 L313.186,395.936 C330.248,389.29 346.207,379.748 360.29,367.498 C372.915,372.332 386.311,374.831 399.999,374.831 C461.749,374.831 511.999,324.582 511.999,262.831 C511.999,237.165 502.957,213.748 488.333,194.831 C502.916,178.958 512,158.021 512,134.833 L512,134.833 Z M465.562,172.458 C447.083,159.02 424.562,150.833 400,150.833 C394.688,150.833 389.438,151.208 384.208,151.958 C354.334,111.271 307.188,86.833 256,86.833 C221.875,86.833 189.688,97.895 163.062,117.187 C170.541,94.334 191.791,77.709 217.124,77.709 C224.874,77.709 232.186,79.271 238.874,82.042 C254.062,52.458 284.5,32 320,32 C355.5,32 385.958,52.458 401.084,82.042 C407.813,79.271 415.167,77.709 422.833,77.709 C454.417,77.709 480,103.292 480,134.833 C480,149.333 474.438,162.396 465.562,172.458 L465.562,172.458 Z" id="Shape" sketch:type="MSShapeGroup"></path>
        </g>
    </g>
</svg>
